dist/assets/images/icons/visible.svg

<svg width="24" height="24" viewBox="0 0 24 24" fill="none" xmlns="http://www.w3.org/2000/svg">
<path fill-rule="evenodd" clip-rule="evenodd" d="M3.40717 8.09467C5.19504 6.3068 8.00057 4.5 12 4.5C15.9994 4.5 18.805 6.3068 20.5928 8.09467C21.4846 8.98644 22.1276 9.87691 22.5487 10.5457C22.7597 10.8807 22.916 11.1618 23.0208 11.362C23.0733 11.4621 23.113 11.5422 23.1402 11.5988C23.1539 11.6272 23.1644 11.6497 23.1719 11.6659L23.1809 11.6855L23.1837 11.6917L23.1847 11.6938L23.185 11.6947C23.1852 11.6951 23.1854 11.6954 22.5 12C23.1854 12.3046 23.1852 12.3049 23.185 12.3053L23.1847 12.3062L23.1837 12.3083L23.1809 12.3145L23.1719 12.3341C23.1644 12.3503 23.1539 12.3728 23.1402 12.4012C23.113 12.4578 23.0733 12.5379 23.0208 12.638C22.916 12.8382 22.7597 13.1193 22.5487 13.4543C22.1276 14.1231 21.4846 15.0136 20.5928 15.9053C18.805 17.6932 15.9994 19.5 12 19.5C8.00057 19.5 5.19504 17.6932 3.40717 15.9053C2.5154 15.0136 1.87235 14.1231 1.45126 13.4543C1.24035 13.1193 1.08405 12.8382 0.979181 12.638C0.92672 12.5379 0.887047 12.4578 0.859771 12.4012C0.846131 12.3728 0.835583 12.3503 0.82808 12.3341L0.819098 12.3145L0.816307 12.3083L0.815334 12.3062L0.814952 12.3053C0.814791 12.3049 0.814641 12.3046 1.5 12C0.814641 11.6954 0.814791 11.6951 0.814952 11.6947L0.815334 11.6938L0.816307 11.6917L0.819098 11.6855L0.82808 11.6659C0.835583 11.6497 0.846131 11.6272 0.859771 11.5988C0.887047 11.5422 0.92672 11.4621 0.979181 11.362C1.08405 11.1618 1.24035 10.8807 1.45126 10.5457C1.87235 9.87691 2.5154 8.98644 3.40717 8.09467ZM1.5 12L0.814641 11.6954C0.728453 11.8893 0.728453 12.1107 0.814641 12.3046L1.5 12ZM2.33859 12C2.42682 12.1653 2.55353 12.3897 2.72061 12.6551C3.0964 13.2519 3.6721 14.0489 4.46783 14.8447C6.05496 16.4318 8.49943 18 12 18C15.5006 18 17.945 16.4318 19.5322 14.8447C20.3279 14.0489 20.9036 13.2519 21.2794 12.6551C21.4465 12.3897 21.5732 12.1653 21.6614 12C21.5732 11.8347 21.4465 11.6103 21.2794 11.3449C20.9036 10.7481 20.3279 9.95106 19.5322 9.15533C17.945 7.5682 15.5006 6 12 6C8.49943 6 6.05496 7.5682 4.46783 9.15533C3.6721 9.95106 3.0964 10.7481 2.72061 11.3449C2.55353 11.6103 2.42682 11.8347 2.33859 12ZM22.5 12L23.1854 12.3046C23.2715 12.1107 23.2715 11.8893 23.1854 11.6954L22.5 12Z" fill="#101112"/>
<path fill-rule="evenodd" clip-rule="evenodd" d="M12 9C10.3431 9 9 10.3431 9 12C9 13.6569 10.3431 15 12 15C13.6569 15 15 13.6569 15 12C15 10.3431 13.6569 9 12 9ZM7.5 12C7.5 9.51472 9.51472 7.5 12 7.5C14.4853 7.5 16.5 9.51472 16.5 12C16.5 14.4853 14.4853 16.5 12 16.5C9.51472 16.5 7.5 14.4853 7.5 12Z" fill="#101112"/>
</svg>

<svg width="24" height="24" fill="none" xmlns="http://www.w3.org/2000/svg"><path fill-rule="evenodd" clip-rule="evenodd" d="M3.407 8.095C5.195 6.307 8.001 4.5 12 4.5c4 0 6.805 1.807 8.593 3.595a14.188 14.188 0 011.956 2.45 11.909 11.909 0 01.591 1.054l.032.067.009.02.003.006v.002h.001L22.5 12l.685.305v.001l-.001.002-.003.007-.01.02a7.643 7.643 0 01-.151.304c-.104.2-.26.48-.471.815a14.185 14.185 0 01-1.956 2.451C18.805 17.693 15.999 19.5 12 19.5c-4 0-6.805-1.807-8.593-3.595a14.186 14.186 0 01-1.956-2.45A11.974 11.974 0 01.86 12.4a5.31 5.31 0 01-.032-.067l-.009-.02-.003-.006v-.002H.814L1.5 12l-.685-.305v-.001l.001-.002.003-.007.01-.02a5.31 5.31 0 01.15-.303c.105-.2.261-.481.472-.816a14.19 14.19 0 011.956-2.451zM1.5 12l-.685-.305a.75.75 0 000 .61L1.5 12zm.839 0c.088.165.215.39.382.655a12.64 12.64 0 001.747 2.19C6.055 16.432 8.499 18 12 18c3.5 0 5.945-1.568 7.532-3.155a12.695 12.695 0 001.747-2.19c.168-.265.294-.49.382-.655-.088-.165-.215-.39-.382-.655a12.693 12.693 0 00-1.747-2.19C17.945 7.568 15.501 6 12 6 8.5 6 6.055 7.568 4.468 9.155a12.69 12.69 0 00-1.747 2.19c-.167.265-.294.49-.382.655zM22.5 12l.685.305a.75.75 0 000-.61L22.5 12z" fill="#101112"/><path fill-rule="evenodd" clip-rule="evenodd" d="M12 9a3 3 0 100 6 3 3 0 000-6zm-4.5 3a4.5 4.5 0 119 0 4.5 4.5 0 01-9 0z" fill="#101112"/></svg>
